X:333
T:Seamus Cooley's Jig
R:jig
H:Also played in D, #329. See also "The Angry Peeler", #194
D:Martin Hayes: Under the Moon
Z:id:hn-jig-333
M:6/8
K:G
BAB G2E|DB,D DEG|GAB AGE|A3 AGA|BAB G2E|DB,D DEG|GAB AGE|G3 G2A:|
|:BAB d2B|BAB d2B|A3 AGE|ABA AGA|1 BAB d2B|BAB d2B|G2B AGE|G3 G2A:|
[2 BAB G2E|DB,D DEG|GAB AGE|G3 G2A||

